X: 0043
T: 393 Polska efter Berg
O: efter Isak Anders Persson
%R: polska
B: Paul B\"ackstr\"om's "L\aatar fr\aan Dalarna" collection" 1974
Z: 2022 John Chambers <jc:trillian.mit.edu>
M: 3/4
L: 1/8
Q: 1/4=138
N: S.L.
K: G
% - - - - - - - - - -
|:\
(3(vBdB) [GG,]z/([G/G,/] B)>(d | ^c)e dz/(=c/ A)d | (3(BdB) [GG,][GG,] Bd |1 ^c<e [d4D4] :|2 ^c<e [d3D3] (va ||
|:\
(3faf) d(d f)>a | (3(geg) (f/a/f/)d/ e>A | (d<f) d2 "^>"[d2D2] | (3faf d(d f)>a |
(3faf) (f/a/f/)d/ e>A | d<f d2 "^>"[d2D2] | =cA/c/ (B/d/)B/G/ A>A |1 (G<B) [G3G,3] (va :|2 (G<B) [G4G,4] |]
% - - - - - - - - - -
%%text Jmf. K.E.F. nr 40.
